X: 1
T: Caribou
C: by Andy de Jarlis
R: reel
O: 1958
M: C|
Z: 2011 John Chambers <jc:trillian.mit.edu>
S: printed MS of unknown origin
K: Edor
|:\
"Em"BEED EFGA | BEED EFGE | "D"DDFD DADD | BDDA DDFD |
"Em"E2ED EFGA | Bdef g2fg | "C"afge f2ec | "D"dBAF "Em"E4 :|
|:\
"Em"Beed efed | Bdef gfed | "D"AddA d3e | fafd edBA |
"Em"Beed efed | Bdef g2fg | "C"afge f2ec | "D"dBAF "Em"E4 :|
